dist/images/graphics/icons/buildings.svg

<svg width="57" height="54" viewBox="0 0 57 54" fill="none" xmlns="http://www.w3.org/2000/svg">
<path d="M34.7799 17.5629H38.7726C39.2531 17.5629 39.6423 17.174 39.6423 16.6932V12.6954C39.6423 12.215 39.2535 11.8257 38.7726 11.8257H34.7799C34.2994 11.8257 33.9102 12.2146 33.9102 12.6954V16.6932C33.9106 17.174 34.2994 17.5629 34.7799 17.5629ZM35.6496 13.5647H37.9033V15.8235H35.6496V13.5647Z" fill="url(#paint0_linear_128_515)"/>
<path d="M42.4976 17.5629H46.4904C46.9709 17.5629 47.3601 17.174 47.3601 16.6932V12.6954C47.3601 12.215 46.9713 11.8257 46.4904 11.8257H42.4976C42.0172 11.8257 41.6279 12.2146 41.6279 12.6954V16.6932C41.6279 17.174 42.0167 17.5629 42.4976 17.5629ZM43.3669 13.5647H45.6207V15.8235H43.3669V13.5647Z" fill="url(#paint1_linear_128_515)"/>
<path d="M34.7799 24.8979H38.7726C39.2531 24.8979 39.6423 24.509 39.6423 24.0282V20.0304C39.6423 19.55 39.2535 19.1607 38.7726 19.1607H34.7799C34.2994 19.1607 33.9102 19.5495 33.9102 20.0304V24.0282C33.9106 24.509 34.2994 24.8979 34.7799 24.8979ZM35.6496 20.9001H37.9033V23.1589H35.6496V20.9001Z" fill="url(#paint2_linear_128_515)"/>
<path d="M42.4976 24.8979H46.4904C46.9709 24.8979 47.3601 24.509 47.3601 24.0282V20.0304C47.3601 19.55 46.9713 19.1607 46.4904 19.1607H42.4976C42.0172 19.1607 41.6279 19.5495 41.6279 20.0304V24.0282C41.6279 24.509 42.0167 24.8979 42.4976 24.8979ZM43.3669 20.9001H45.6207V23.1589H43.3669V20.9001Z" fill="url(#paint3_linear_128_515)"/>
<path d="M38.7726 32.2318C39.2531 32.2318 39.6423 31.843 39.6423 31.3621V27.3644C39.6423 26.8839 39.2535 26.4947 38.7726 26.4947H34.7799C34.2994 26.4947 33.9102 26.8835 33.9102 27.3644V31.3621C33.9102 31.8426 34.299 32.2318 34.7799 32.2318H38.7726ZM35.6492 28.2336H37.903V30.4924H35.6492V28.2336Z" fill="url(#paint4_linear_128_515)"/>
<path d="M42.4976 32.2318H46.4904C46.9709 32.2318 47.3601 31.843 47.3601 31.3621V27.3644C47.3601 26.8839 46.9713 26.4947 46.4904 26.4947H42.4976C42.0172 26.4947 41.6279 26.8835 41.6279 27.3644V31.3621C41.6279 31.8426 42.0167 32.2318 42.4976 32.2318ZM43.3669 28.2336H45.6207V30.4924H43.3669V28.2336Z" fill="url(#paint5_linear_128_515)"/>
<path d="M42.8375 43.3297C42.357 43.3297 41.9678 43.7185 41.9678 44.1993V46.6728C41.9678 47.1533 42.3566 47.5426 42.8375 47.5426C43.3179 47.5426 43.7072 47.1537 43.7072 46.6728V44.1993C43.7072 43.7189 43.3184 43.3297 42.8375 43.3297Z" fill="url(#paint6_linear_128_515)"/>
<path d="M55.4562 53.1129C55.9366 53.1129 56.3259 52.724 56.3259 52.2432C56.3259 51.7627 55.9371 51.3735 55.4562 51.3735H52.9546V7.12131C52.9546 6.64084 52.5658 6.25161 52.0849 6.25161H50.6811V1.75622C50.6811 1.27575 50.2923 0.88652 49.8114 0.88652H31.4557C30.9752 0.88652 30.586 1.27533 30.586 1.75622V6.25161H29.1831C28.7026 6.25161 28.3134 6.64042 28.3134 7.12131V27.0606H5.9848C5.64956 27.0606 5.34361 27.2535 5.19923 27.5566L1.72083 34.8611C1.59276 35.1302 1.61202 35.4471 1.77106 35.6994C1.93052 35.9518 2.20841 36.1046 2.50641 36.1046H5.11512V51.3746H1.54255C1.06208 51.3746 0.672852 51.7634 0.672852 52.2443C0.672852 52.7247 1.06166 53.114 1.54255 53.114L55.4562 53.1129ZM14.0262 51.368H10.6955V45.4254C10.6955 44.5092 11.4447 43.7642 12.365 43.7642C13.2992 43.7642 14.0262 44.5197 14.0262 45.4254V51.368ZM32.3262 2.62553H48.9419V6.25168H32.3262V2.62553ZM30.0536 7.99061H51.2153V51.3706H46.2282V38.6356C46.2282 38.1551 45.8394 37.7659 45.3585 37.7659H35.9106C35.4301 37.7659 35.0409 38.1547 35.0409 38.6356V51.3706H30.0537L30.0536 7.99061ZM36.7801 51.3685V39.5056H44.4889V51.3685H36.7801ZM6.53474 28.7999H28.3126V34.3654H3.88402L6.53474 28.7999ZM28.3137 36.1049V51.3685H15.7662V45.4258C15.7662 43.5734 14.2679 42.0257 12.3661 42.0257C10.4869 42.0257 8.95767 43.5508 8.95767 45.4258V51.3685H6.85585V36.1049H28.3137Z" fill="url(#paint7_linear_128_515)"/>
<path d="M17.5836 48.4425H26.7836C27.2641 48.4425 27.6533 48.0537 27.6533 47.5728V42.8949C27.6533 42.4145 27.2645 42.0252 26.7836 42.0252H17.5836C17.1031 42.0252 16.7139 42.4141 16.7139 42.8949V47.5732C16.7143 48.0537 17.1031 48.4425 17.5836 48.4425V48.4425ZM18.4533 43.7642H25.9144V46.7031H18.4533V43.7642Z" fill="url(#paint8_linear_128_515)"/>
<defs>
<linearGradient id="paint0_linear_128_515" x1="36.7762" y1="11.8257" x2="36.7762" y2="17.5629" gradientUnits="userSpaceOnUse">
<stop stop-color="#4929E8"/>
<stop offset="1" stop-color="#32ACFB"/>
</linearGradient>
<linearGradient id="paint1_linear_128_515" x1="44.494" y1="11.8257" x2="44.494" y2="17.5629" gradientUnits="userSpaceOnUse">
<stop stop-color="#4929E8"/>
<stop offset="1" stop-color="#32ACFB"/>
</linearGradient>
<linearGradient id="paint2_linear_128_515" x1="36.7762" y1="19.1607" x2="36.7762" y2="24.8979" gradientUnits="userSpaceOnUse">
<stop stop-color="#4929E8"/>
<stop offset="1" stop-color="#32ACFB"/>
</linearGradient>
<linearGradient id="paint3_linear_128_515" x1="44.494" y1="19.1607" x2="44.494" y2="24.8979" gradientUnits="userSpaceOnUse">
<stop stop-color="#4929E8"/>
<stop offset="1" stop-color="#32ACFB"/>
</linearGradient>
<linearGradient id="paint4_linear_128_515" x1="36.7762" y1="26.4947" x2="36.7762" y2="32.2318" gradientUnits="userSpaceOnUse">
<stop stop-color="#4929E8"/>
<stop offset="1" stop-color="#32ACFB"/>
</linearGradient>
<linearGradient id="paint5_linear_128_515" x1="44.494" y1="26.4947" x2="44.494" y2="32.2318" gradientUnits="userSpaceOnUse">
<stop stop-color="#4929E8"/>
<stop offset="1" stop-color="#32ACFB"/>
</linearGradient>
<linearGradient id="paint6_linear_128_515" x1="42.8375" y1="43.3297" x2="42.8375" y2="47.5426" gradientUnits="userSpaceOnUse">
<stop stop-color="#4929E8"/>
<stop offset="1" stop-color="#32ACFB"/>
</linearGradient>
<linearGradient id="paint7_linear_128_515" x1="28.4994" y1="0.88652" x2="28.4994" y2="53.114" gradientUnits="userSpaceOnUse">
<stop stop-color="#4929E8"/>
<stop offset="1" stop-color="#32ACFB"/>
</linearGradient>
<linearGradient id="paint8_linear_128_515" x1="22.1836" y1="42.0252" x2="22.1836" y2="48.4425" gradientUnits="userSpaceOnUse">
<stop stop-color="#4929E8"/>
<stop offset="1" stop-color="#32ACFB"/>
</linearGradient>
</defs>
</svg>

<svg width="57" height="54" fill="none" xmlns="http://www.w3.org/2000/svg"><path d="M34.78 17.563h3.993a.87.87 0 00.87-.87v-3.998a.87.87 0 00-.87-.87H34.78a.87.87 0 00-.87.87v3.998c0 .481.39.87.87.87zm.87-3.998h2.253v2.258H35.65v-2.258z" fill="url(#paint0_linear_128_515)"/><path d="M42.498 17.563h3.992a.87.87 0 00.87-.87v-3.998a.87.87 0 00-.87-.87h-3.992a.87.87 0 00-.87.87v3.998c0 .481.389.87.87.87zm.869-3.998h2.254v2.258h-2.254v-2.258z" fill="url(#paint1_linear_128_515)"/><path d="M34.78 24.898h3.993a.87.87 0 00.87-.87V20.03a.87.87 0 00-.87-.87H34.78a.87.87 0 00-.87.87v3.998c0 .481.39.87.87.87zm.87-3.998h2.253v2.259H35.65V20.9z" fill="url(#paint2_linear_128_515)"/><path d="M42.498 24.898h3.992a.87.87 0 00.87-.87V20.03a.87.87 0 00-.87-.87h-3.992a.87.87 0 00-.87.87v3.998c0 .481.389.87.87.87zm.869-3.998h2.254v2.259h-2.254V20.9z" fill="url(#paint3_linear_128_515)"/><path d="M38.773 32.232a.87.87 0 00.87-.87v-3.998a.87.87 0 00-.87-.87H34.78a.87.87 0 00-.87.87v3.998c0 .48.389.87.87.87h3.993zm-3.124-3.998h2.254v2.258h-2.254v-2.258z" fill="url(#paint4_linear_128_515)"/><path d="M42.498 32.232h3.992a.87.87 0 00.87-.87v-3.998a.87.87 0 00-.87-.87h-3.992a.87.87 0 00-.87.87v3.998c0 .48.389.87.87.87zm.869-3.998h2.254v2.258h-2.254v-2.258z" fill="url(#paint5_linear_128_515)"/><path d="M42.837 43.33a.87.87 0 00-.87.87v2.473a.87.87 0 101.74 0v-2.474a.87.87 0 00-.87-.87z" fill="url(#paint6_linear_128_515)"/><path d="M55.456 53.113a.87.87 0 100-1.74h-2.501V7.121a.87.87 0 00-.87-.87H50.68V1.757a.87.87 0 00-.87-.87H31.456a.87.87 0 00-.87.87v4.496h-1.403a.87.87 0 00-.87.87V27.06H5.985a.87.87 0 00-.786.496L1.721 34.86a.871.871 0 00.785 1.244h2.61v15.27H1.542a.87.87 0 100 1.739l53.913-.001zm-41.43-1.745h-3.33v-5.943a1.666 1.666 0 013.33 0v5.943zm18.3-48.742h16.616v3.626H32.326V2.626zM30.054 7.99h21.161v43.38h-4.987V38.636a.87.87 0 00-.87-.87h-9.447a.87.87 0 00-.87.87V51.37h-4.987V7.99zm6.726 43.377V39.506h7.709v11.862H36.78zM6.535 28.8h21.778v5.565H3.884l2.65-5.565zm21.779 7.305v15.264H15.766v-5.943a3.4 3.4 0 00-3.4-3.4 3.408 3.408 0 00-3.408 3.4v5.942H6.856V36.105h21.458z" fill="url(#paint7_linear_128_515)"/><path d="M17.584 48.443h9.2a.87.87 0 00.87-.87v-4.678a.87.87 0 00-.87-.87h-9.2a.87.87 0 00-.87.87v4.678c0 .48.39.87.87.87zm.87-4.679h7.46v2.94h-7.46v-2.94z" fill="url(#paint8_linear_128_515)"/><defs><linearGradient id="paint0_linear_128_515" x1="36.776" y1="11.826" x2="36.776" y2="17.563" gradientUnits="userSpaceOnUse"><stop stop-color="#4929E8"/><stop offset="1" stop-color="#32ACFB"/></linearGradient><linearGradient id="paint1_linear_128_515" x1="44.494" y1="11.826" x2="44.494" y2="17.563" gradientUnits="userSpaceOnUse"><stop stop-color="#4929E8"/><stop offset="1" stop-color="#32ACFB"/></linearGradient><linearGradient id="paint2_linear_128_515" x1="36.776" y1="19.161" x2="36.776" y2="24.898" gradientUnits="userSpaceOnUse"><stop stop-color="#4929E8"/><stop offset="1" stop-color="#32ACFB"/></linearGradient><linearGradient id="paint3_linear_128_515" x1="44.494" y1="19.161" x2="44.494" y2="24.898" gradientUnits="userSpaceOnUse"><stop stop-color="#4929E8"/><stop offset="1" stop-color="#32ACFB"/></linearGradient><linearGradient id="paint4_linear_128_515" x1="36.776" y1="26.495" x2="36.776" y2="32.232" gradientUnits="userSpaceOnUse"><stop stop-color="#4929E8"/><stop offset="1" stop-color="#32ACFB"/></linearGradient><linearGradient id="paint5_linear_128_515" x1="44.494" y1="26.495" x2="44.494" y2="32.232" gradientUnits="userSpaceOnUse"><stop stop-color="#4929E8"/><stop offset="1" stop-color="#32ACFB"/></linearGradient><linearGradient id="paint6_linear_128_515" x1="42.837" y1="43.33" x2="42.837" y2="47.543" gradientUnits="userSpaceOnUse"><stop stop-color="#4929E8"/><stop offset="1" stop-color="#32ACFB"/></linearGradient><linearGradient id="paint7_linear_128_515" x1="28.499" y1=".887" x2="28.499" y2="53.114" gradientUnits="userSpaceOnUse"><stop stop-color="#4929E8"/><stop offset="1" stop-color="#32ACFB"/></linearGradient><linearGradient id="paint8_linear_128_515" x1="22.184" y1="42.025" x2="22.184" y2="48.443" gradientUnits="userSpaceOnUse"><stop stop-color="#4929E8"/><stop offset="1" stop-color="#32ACFB"/></linearGradient></defs></svg>
